X:93
T:Miss Lyall's
R:Strathspey
A:Cape Breton
M:C
L:1/8
S:Sandy MacIntyre
K:Am
(3A/c/B/ | A<A,A,>B, C>DE>^F | G<GB>A  [G2B2] cB | A<A,A,>B, C>EE<G | c>AB>^G  A2(3A/c/B/|
A<A,A,>B, C>DE>^F | G<GB>A  G2 (3Bcd | e>cd>B c>AB>G| E<A^G>B (A2A)||
B| A<aa>b g>a b/a/g/^f/ |e<aa>b (3gag ^f>g | A<aa>b g>a b/a/g/^f/ | e>cd>B (A2A) B |
A<aa>b| g>a b/a/g/^f/ | e<aa>b (3gag ^f>g | (3ag^f (3gab (3edc (3Bcd | e>cd<B (A2A)
